X:1
T:Author of Light
T:Thomas Campion (1567-1620) Two Bookes of Ayres (c.1613) 
T: R eintroduced by Joseph Knapicius to the world of viols and to string quartets.
T:Author of Light
%%score [ 1 2 3 4 ]
L:1/8
Q:1/4=92
M:2/2
K:Dmin
V:1 treble nm="Viol 1\n(Voice)" snm="Viol 1"
V:2 treble nm="Viol 2" snm="Viol 2"
V:3 alto nm="Viol 3" snm="Viol 3"
V:4 bass nm="Viol 4" snm="Viol 4"
V:1
 z4 d4- | d4 G2 G2 | G4 z2 A2 | A4 B4- | B2 (cB A2) G2 | ^F6 z2 | z8 | z4 G4 | c6 A2 | B4 c4 | %10
w: 1)Au-|* thor of|light re-|vive my|* dy- * * ing|sprite,-||re-|deem it|from the|
 d6 z2 | _e6 d2- | d2 (cB) (AG) A2 | G6 z2 | z4 E4 | G4 E4 | F2 D2 A4- | A4 G4 | A4 z2 c2 | %19
w: snares,|of all|* con- * found- * ing|night.|Lord,|light me|to thy bless-|* ed|way: for|
 B4 z2 B2 | A4 D2 G2- | G2 ^F2 d4- | d2 (A2 =B4) | c4 z2 B2 | A4 (G2 F2) | (E2 D2) E4 | D6 z2 | %27
w: blind, for|blind with world-|* ly vain|* de- *|sires, I|wan- der *|as * a|stray.|
 z2 d4 (BA) | G2 c4 (AG) | F3 D E2 ^F2 | G3 z D2 B2- | B2 G2 c4- | c2 A2 d4- | d6 D2 | _E4 =E4 | %35
w: Sun and *|moon, stars and *|un- der lights I|see, but all|* their glo-|* rious beams,|* are|mists and|
 F4 ^F4 | G4 B4 | A6 A2 | G8 |] %39
w: dark- ness|being com-|par'd to|thee.|
V:2
 D8 | D4 D4 | E4 E4 | F4 D4 | D4 C4 | D4 A,4 | D2 E2 F4- | F4 E4 | F4 F4 | F2 G2 _E2 FE | D4 F4 | %11
 G3 A B3 A/G/ | F2 G4 ^F2 | G8 | E8 | D4 A2 G2 | F6 E2 | D4 D4 | ^C4 z2 E2 | G4 z2 D2 | F4 B,2 C2 | %21
 D2 E2 F2 G2 | A4 G4 | G4 E4 | ^F2 F2 G4- | G2 F2 E4 | ^F8 | z4 z2 G2- | G2 ED C2 F2- | F2 D2 C4 | %30
 B,4 G,4- | G,2 G2 G2 G2 | A4 F4 | B2 A2 G4- | G4 A4- | A4 D4 | D4 G4- | G2 ^FE F4 | G8 |] %39
V:3
 G8 | F4 D4 | C2 B,2 A,3 G, | F,8 | G,8 | A,4 D4 | D4 C4 | B,4 B,4 | A,4 C4 | F,2 B,2 B,2 A,2 | %10
 B,4 B,4 | B,8 | A,2 G,2 A,2 A,2 | =B,8 | G,8 | G,4 A,4- | A,2 G,2 F,4- | F,4 G,4 | E,2 E,2 A,4 | %19
 z2 B,2 F,2 G,2 | A,4 B,4 | A,4 A,4 | D4 D4 | _E4 C4- | C4 =B,4 | ^C2 D4 C2 | D4 D4 | D4 D4 | %28
 E4 F2 F,2 | F,2 G,2 E,2 A,2 | D,4 B,4 | G,6 _E2 | C2 C2 B,4 | D8 | C4 ^C4 | D4 D4 | G,4 G,4 | %37
 A,6 A,2 | =B,8 |] %39
V:4
 G,,6 A,,2 | B,,4 =B,,4 | C,4 ^C,4 | D,4 B,,2 B,,2 | _E,4 E,4 | D,6 C,2 | B,,4 A,,4 | G,,8 | %8
 F,,4 F,4 | D,2 _E,2 C,4 | B,,4 B,,4 | _E,,3 F,, G,,A,,B,,C, | D,4 D,4 | G,,8 | C,8 | =B,,4 ^C,4 | %16
 D,6 C,2 | B,,4 B,,4 | A,,4 z2 A,,2 | G,,4 B,,4 | F,,4 G,,4 | D,6 E,2 | ^F,4 G,4 | C,6 C,2 | %24
 D,4 G,,4 | A,,4 A,,4 | D,,6 D,2 | B,,3 A,, G,,4 | C,2 C,2 F,,2 F,,2 | B,,4 A,,4 | G,,6 G,,2 | %31
 _E,4 C,4 | F,2 F,2 B,3 A, | G,2 F,2 G,4 | C2 B,2 A,2 G,2 | F,2 _E,2 D,2 C,2 | B,,2 A,,2 G,,4 | %37
 D,4 D,4 | G,,8 |] %39

